X:009 
T:Banard Jig, The
F:file ID: cre.5/009banard
B:CRE5.042 (Port an AirdhÃÂÃÂÃÂÃÂ¡in)
M:6/8
Q:160
R:jig
K:D
B|AFA daf|edA BdB|AFA dfe|fdc d/e/dB|
AFA a/b/af|edA BdB|AFA d2e|fdc d2:|
|:e|fef afe|dBA d2e|faf ede|fdB d2e|
fef afe|dBA d2e|faf ede|1 fdc d2:|\
[2 fdc d3-|d6|]


%%%

